assets/svg/account_circle.svg

<svg width="40" height="40" viewBox="0 0 40 40" fill="none" xmlns="http://www.w3.org/2000/svg">
<g opacity="0.5">
<mask id="mask0_27_145" style="mask-type:alpha" maskUnits="userSpaceOnUse" x="0" y="0" width="40" height="40">
<rect width="40" height="40" fill="#D9D9D9"/>
</mask>
<g mask="url(#mask0_27_145)">
<path d="M9.41701 29.083C11.0557 27.9163 12.743 27.0067 14.479 26.354C16.215 25.7013 18.0553 25.375 20 25.375C21.9447 25.375 23.792 25.7013 25.542 26.354C27.292 27.0067 28.9863 27.9163 30.625 29.083C31.7637 27.6943 32.59 26.25 33.104 24.75C33.618 23.25 33.875 21.6667 33.875 20C33.875 16.0833 32.5417 12.7917 29.875 10.125C27.2083 7.45833 23.9167 6.12499 20 6.12499C16.0833 6.12499 12.7917 7.45833 10.125 10.125C7.45834 12.7917 6.12501 16.0833 6.12501 20C6.12501 21.6667 6.38901 23.25 6.91701 24.75C7.44434 26.25 8.27767 27.6943 9.41701 29.083ZM20 21.375C18.3887 21.375 17.0277 20.8193 15.917 19.708C14.8057 18.5973 14.25 17.2363 14.25 15.625C14.25 14.0137 14.8057 12.6527 15.917 11.542C17.0277 10.4307 18.3887 9.87499 20 9.87499C21.6113 9.87499 22.9723 10.4307 24.083 11.542C25.1943 12.6527 25.75 14.0137 25.75 15.625C25.75 17.2637 25.1943 18.6317 24.083 19.729C22.9723 20.8263 21.6113 21.375 20 21.375ZM20 36.667C17.722 36.667 15.5693 36.2293 13.542 35.354C11.514 34.4793 9.74301 33.285 8.22901 31.771C6.71501 30.257 5.52067 28.493 4.64601 26.479C3.77067 24.465 3.33301 22.3053 3.33301 20C3.33301 17.6947 3.77067 15.535 4.64601 13.521C5.52067 11.507 6.71501 9.74299 8.22901 8.22899C9.74301 6.71499 11.507 5.52066 13.521 4.64599C15.535 3.77066 17.6947 3.33299 20 3.33299C22.3053 3.33299 24.465 3.77066 26.479 4.64599C28.493 5.52066 30.257 6.71499 31.771 8.22899C33.285 9.74299 34.4793 11.507 35.354 13.521C36.2293 15.535 36.667 17.6947 36.667 20C36.667 22.278 36.2293 24.4307 35.354 26.458C34.4793 28.486 33.285 30.257 31.771 31.771C30.257 33.285 28.493 34.4793 26.479 35.354C24.465 36.2293 22.3053 36.667 20 36.667ZM20 33.875C21.5 33.875 22.9583 33.6597 24.375 33.229C25.7917 32.7983 27.1527 32.0693 28.458 31.042C27.1527 30.1253 25.7917 29.417 24.375 28.917C22.9583 28.417 21.5 28.167 20 28.167C18.5 28.167 17.0417 28.417 15.625 28.917C14.2083 29.417 12.8473 30.1253 11.542 31.042C12.8473 32.0693 14.2083 32.7983 15.625 33.229C17.0417 33.6597 18.5 33.875 20 33.875ZM20 18.625C20.8613 18.625 21.5697 18.3473 22.125 17.792C22.6803 17.236 22.958 16.5137 22.958 15.625C22.958 14.7637 22.6803 14.0553 22.125 13.5C21.5697 12.9447 20.8613 12.667 20 12.667C19.1387 12.667 18.4303 12.9447 17.875 13.5C17.3197 14.0553 17.042 14.7637 17.042 15.625C17.042 16.5137 17.3197 17.236 17.875 17.792C18.4303 18.3473 19.1387 18.625 20 18.625Z" fill="#FF8E1F"/>
</g>
</g>
</svg>

<svg width="40" height="40" fill="none" xmlns="http://www.w3.org/2000/svg">
    <g opacity=".5">
        <mask id="a" style="mask-type:alpha" maskUnits="userSpaceOnUse" x="0" y="0" width="40" height="40">
            <path fill="#D9D9D9" d="M0 0h40v40H0z"/>
        </mask>
        <g mask="url(#a)">
            <path d="M9.417 29.083c1.639-1.167 3.326-2.076 5.062-2.729 1.736-.653 3.576-.979 5.521-.979 1.945 0 3.792.326 5.542.979s3.444 1.562 5.083 2.729c1.139-1.389 1.965-2.833 2.479-4.333s.771-3.083.771-4.75c0-3.917-1.333-7.208-4-9.875s-5.958-4-9.875-4-7.208 1.333-9.875 4-4 5.958-4 9.875c0 1.667.264 3.25.792 4.75.527 1.5 1.36 2.944 2.5 4.333ZM20 21.375c-1.611 0-2.972-.556-4.083-1.667-1.111-1.11-1.667-2.472-1.667-4.083 0-1.611.556-2.972 1.667-4.083 1.11-1.111 2.472-1.667 4.083-1.667 1.611 0 2.972.556 4.083 1.667 1.111 1.11 1.667 2.472 1.667 4.083 0 1.639-.556 3.007-1.667 4.104-1.11 1.097-2.472 1.646-4.083 1.646Zm0 15.292c-2.278 0-4.43-.438-6.458-1.313a16.898 16.898 0 0 1-5.313-3.583 16.965 16.965 0 0 1-3.583-5.292C3.771 24.465 3.333 22.305 3.333 20c0-2.305.438-4.465 1.313-6.479a16.965 16.965 0 0 1 3.583-5.292 16.965 16.965 0 0 1 5.292-3.583c2.014-.875 4.174-1.313 6.479-1.313 2.305 0 4.465.438 6.479 1.313a16.965 16.965 0 0 1 5.292 3.583 16.965 16.965 0 0 1 3.583 5.292c.875 2.014 1.313 4.174 1.313 6.479 0 2.278-.438 4.43-1.313 6.458a16.898 16.898 0 0 1-3.583 5.313 16.965 16.965 0 0 1-5.292 3.583c-2.014.875-4.174 1.313-6.479 1.313Zm0-2.792c1.5 0 2.958-.215 4.375-.646 1.417-.43 2.778-1.16 4.083-2.187a16.847 16.847 0 0 0-4.083-2.125c-1.417-.5-2.875-.75-4.375-.75s-2.958.25-4.375.75a16.847 16.847 0 0 0-4.083 2.125c1.305 1.027 2.666 1.756 4.083 2.187 1.417.43 2.875.646 4.375.646Zm0-15.25c.861 0 1.57-.278 2.125-.833.555-.556.833-1.278.833-2.167 0-.861-.278-1.57-.833-2.125-.555-.555-1.264-.833-2.125-.833s-1.57.278-2.125.833c-.555.555-.833 1.264-.833 2.125 0 .889.278 1.611.833 2.167.555.555 1.264.833 2.125.833Z" fill="#FF8E1F"/>
        </g>
    </g>
</svg>
